X:7
T:Kitty Gone A'Milking
R:Reel
S:Paddy Canny, Clare (fiddle)
D:Home tape of unknown provenance
N:As played
Z:Bernie Stocks
M:4/4
K:G
|: dG~G2 d2cA | dG(3.G.G.G FGAB | dG~G2 dzeg | fdcA GABc :| 
dg~g2 ag~g2 | ag{a}gf d2cA | dg~g2 ag~g2 | dcAB (3.c.d.c Bc |
dg~g2 ag~g2 | dg{a}gf d2cA | defg abag | fdcA GABc ||
<end>
<start>
